assets/svg/buycart.svg

<svg width="48" height="48" viewBox="0 0 48 48" fill="none" xmlns="http://www.w3.org/2000/svg">
<rect x="0.75" y="0.75" width="46.5" height="46.5" rx="7.25" stroke="#23A455" stroke-width="1.5"/>
<path fill-rule="evenodd" clip-rule="evenodd" d="M19.4222 31.8203C19.8442 31.8203 20.1872 32.1633 20.1872 32.5853C20.1872 33.0073 19.8442 33.3493 19.4222 33.3493C19.0002 33.3493 18.6582 33.0073 18.6582 32.5853C18.6582 32.1633 19.0002 31.8203 19.4222 31.8203Z" stroke="#23A455" stroke-width="1.5" stroke-linecap="round" stroke-linejoin="round"/>
<path fill-rule="evenodd" clip-rule="evenodd" d="M30.6747 31.8203C31.0967 31.8203 31.4397 32.1633 31.4397 32.5853C31.4397 33.0073 31.0967 33.3493 30.6747 33.3493C30.2527 33.3493 29.9097 33.0073 29.9097 32.5853C29.9097 32.1633 30.2527 31.8203 30.6747 31.8203Z" stroke="#23A455" stroke-width="1.5" stroke-linecap="round" stroke-linejoin="round"/>
<path d="M14.7499 15.25L16.8299 15.61L17.7929 27.083C17.8709 28.018 18.6519 28.736 19.5899 28.736H30.5019C31.3979 28.736 32.1579 28.078 32.2869 27.19L33.2359 20.632C33.3529 19.823 32.7259 19.099 31.9089 19.099H17.1639" stroke="#23A455" stroke-width="1.5" stroke-linecap="round" stroke-linejoin="round"/>
<path d="M26.1254 22.795H28.8984" stroke="#23A455" stroke-width="1.5" stroke-linecap="round" stroke-linejoin="round"/>
</svg>

<svg version="1.2" xmlns="http://www.w3.org/2000/svg" viewBox="0 0 48 48" width="48" height="48">
	<title>buycart-svg</title>
	<style>
		.s0 { fill: none;stroke: #0e3746;stroke-width: 1.5 } 
		.s1 { fill: none;stroke: #0e3746;stroke-linecap: round;stroke-linejoin: round;stroke-width: 1.5 } 
	</style>
	<path id="Layer" class="s0" d="m0.8 8c-0.1-4 3.2-7.3 7.2-7.3h32c4 0 7.3 3.3 7.3 7.3l-0.1 32c0 4-3.2 7.3-7.2 7.3h-32c-4 0-7.3-3.3-7.3-7.3z"/>
	<path id="Layer" fill-rule="evenodd" class="s1" d="m19.4 31.8c0.4 0 0.8 0.4 0.8 0.8 0 0.4-0.4 0.7-0.8 0.7-0.4 0-0.7-0.3-0.7-0.7 0-0.4 0.3-0.8 0.7-0.8z"/>
	<path id="Layer" fill-rule="evenodd" class="s1" d="m30.7 31.8c0.4 0 0.7 0.4 0.7 0.8 0 0.4-0.3 0.7-0.7 0.7-0.4 0-0.8-0.3-0.8-0.7 0-0.4 0.4-0.8 0.8-0.8z"/>
	<path id="Layer" class="s1" d="m14.7 15.3l2.1 0.3 1 11.5c0.1 0.9 0.9 1.6 1.8 1.6h10.9c0.9 0 1.7-0.6 1.8-1.5l0.9-6.6c0.2-0.8-0.5-1.5-1.3-1.5h-14.7"/>
	<path id="Layer" class="s1" d="m26.1 22.8h2.8"/>
</svg>
